file/oracle.svg

<svg clip-rule="evenodd" fill-rule="evenodd" stroke-linejoin="round" stroke-miterlimit="1.41421" viewBox="0 0 560 400" xmlns="http://www.w3.org/2000/svg"><g fill-rule="nonzero" transform="matrix(6.59535 0 0 6.59535 100 134.157)"><path d="m0 19.966h54.584v-19.966h-54.584z" fill="#e32124"/><path d="m47.553 7.987c.04 0 .081 0 .104-.041.006-.017.011-.035.011-.052 0-.035-.017-.064-.046-.081-.029-.012-.058-.012-.121-.012h-.029v.18h.081zm-.052-.284c.086 0 .127 0 .162.017.115.035.127.139.127.174 0 .006 0 .029-.006.052s-.017.07-.081.11c-.012.006-.012.006-.029.012l.145.266h-.139l-.127-.243h-.081v.243h-.128v-.631zm.052.891c.312 0 .561-.254.561-.561 0-.313-.249-.561-.561-.561-.307 0-.556.248-.556.561 0 .307.249.561.556.561zm-.44-.561c0-.243.197-.446.44-.446.248 0 .445.203.445.446 0 .237-.202.44-.445.44-.238 0-.44-.203-.44-.44zm-3.901 3.571c-.74 0-1.36-.498-1.551-1.175h4.098l.567-.88h-4.67c.185-.677.816-1.18 1.55-1.18h2.825l.561-.88h-3.449c-1.383 0-2.5 1.117-2.5 2.494 0 1.378 1.117 2.494 2.5 2.494h2.963l.561-.879h-3.461zm-11.742.879c-1.377 0-2.494-1.117-2.494-2.494s1.117-2.494 2.494-2.494h3.449l-.567.879h-2.824c-.891 0-1.614.724-1.614 1.615s.723 1.615 1.614 1.615h3.461l-.567.879h-2.963zm-18.229-.879c.891 0 1.62-.724 1.62-1.615s-.723-1.615-1.62-1.615h-2.772c-.891 0-1.615.724-1.615 1.615s.724 1.615 1.615 1.615zm-2.836.879c-1.383 0-2.5-1.117-2.5-2.494s1.117-2.494 2.5-2.494h2.9c1.377 0 2.494 1.117 2.494 2.494s-1.117 2.494-2.494 2.494zm10.104-1.614c.938 0 1.69-.758 1.69-1.69s-.752-1.69-1.69-1.69h-4.201v4.994h.961v-4.114h3.177c.44 0 .804.364.804.81 0 .445-.364.804-.804.804h-2.709l2.859 2.5h1.395l-1.927-1.614zm15.88.735v-4.109h-.955v4.514c0 .127.047.243.139.335.093.087.22.145.353.145h4.381l.567-.88h-4.479zm-11.748-.88h2.564l-1.354-2.182-2.488 3.947h-1.129l3.021-4.734c.133-.191.353-.307.596-.307.231 0 .451.11.584.296l3.033 4.745h-1.134l-.533-.88h-2.592l-.568-.879z" fill="#fefefe"/></g></svg>

<?xml version="1.0" encoding="UTF-8" standalone="no"?>
<!DOCTYPE svg PUBLIC "-//W3C//DTD SVG 1.1//EN" "http://www.w3.org/Graphics/SVG/1.1/DTD/svg11.dtd">
<svg width="100%" height="100%" viewBox="0 0 560 400" version="1.1" xmlns="http://www.w3.org/2000/svg" xmlns:xlink="http://www.w3.org/1999/xlink" xml:space="preserve" xmlns:serif="http://www.serif.com/" style="fill-rule:evenodd;clip-rule:evenodd;stroke-linejoin:round;stroke-miterlimit:1.41421;">
    <g transform="matrix(6.59535,0,0,6.59535,100,134.157)">
        <path d="M0,19.966L54.584,19.966L54.584,0L0,0L0,19.966Z" style="fill:rgb(227,33,36);fill-rule:nonzero;"/>
        <path d="M47.553,7.987C47.593,7.987 47.634,7.987 47.657,7.946C47.663,7.929 47.668,7.911 47.668,7.894C47.668,7.859 47.651,7.83 47.622,7.813C47.593,7.801 47.564,7.801 47.501,7.801L47.472,7.801L47.472,7.981L47.553,7.981L47.553,7.987ZM47.501,7.703C47.587,7.703 47.628,7.703 47.663,7.72C47.778,7.755 47.79,7.859 47.79,7.894C47.79,7.9 47.79,7.923 47.784,7.946C47.778,7.969 47.767,8.016 47.703,8.056C47.691,8.062 47.691,8.062 47.674,8.068L47.819,8.334L47.68,8.334L47.553,8.091L47.472,8.091L47.472,8.334L47.344,8.334L47.344,7.703L47.501,7.703ZM47.553,8.594C47.865,8.594 48.114,8.34 48.114,8.033C48.114,7.72 47.865,7.472 47.553,7.472C47.246,7.472 46.997,7.72 46.997,8.033C46.997,8.34 47.246,8.594 47.553,8.594ZM47.113,8.033C47.113,7.79 47.31,7.587 47.553,7.587C47.801,7.587 47.998,7.79 47.998,8.033C47.998,8.27 47.796,8.473 47.553,8.473C47.315,8.473 47.113,8.27 47.113,8.033ZM43.212,11.604C42.472,11.604 41.852,11.106 41.661,10.429L45.759,10.429L46.326,9.549L41.656,9.549C41.841,8.872 42.472,8.369 43.206,8.369L46.031,8.369L46.592,7.489L43.143,7.489C41.76,7.489 40.643,8.606 40.643,9.983C40.643,11.361 41.76,12.477 43.143,12.477L46.106,12.477L46.667,11.598L43.206,11.598L43.212,11.604ZM31.47,12.483C30.093,12.483 28.976,11.366 28.976,9.989C28.976,8.612 30.093,7.495 31.47,7.495L34.919,7.495L34.352,8.374L31.528,8.374C30.637,8.374 29.914,9.098 29.914,9.989C29.914,10.88 30.637,11.604 31.528,11.604L34.989,11.604L34.422,12.483L31.459,12.483L31.47,12.483ZM13.241,11.604C14.132,11.604 14.861,10.88 14.861,9.989C14.861,9.098 14.138,8.374 13.241,8.374L10.469,8.374C9.578,8.374 8.854,9.098 8.854,9.989C8.854,10.88 9.578,11.604 10.469,11.604L13.241,11.604ZM10.405,12.483C9.022,12.483 7.905,11.366 7.905,9.989C7.905,8.612 9.022,7.495 10.405,7.495L13.305,7.495C14.682,7.495 15.799,8.612 15.799,9.989C15.799,11.366 14.682,12.483 13.305,12.483L10.405,12.483ZM20.509,10.869C21.447,10.869 22.199,10.111 22.199,9.179C22.199,8.247 21.447,7.489 20.509,7.489L16.308,7.489L16.308,12.483L17.269,12.483L17.269,8.369L20.446,8.369C20.886,8.369 21.25,8.733 21.25,9.179C21.25,9.624 20.886,9.983 20.446,9.983L17.737,9.983L20.596,12.483L21.991,12.483L20.064,10.869L20.509,10.869ZM36.389,11.604L36.389,7.495L35.434,7.495L35.434,12.009C35.434,12.136 35.481,12.252 35.573,12.344C35.666,12.431 35.793,12.489 35.926,12.489L40.307,12.489L40.874,11.609L36.395,11.609L36.389,11.604ZM24.641,10.724L27.205,10.724L25.851,8.542L23.363,12.489L22.234,12.489L25.255,7.755C25.388,7.564 25.608,7.448 25.851,7.448C26.082,7.448 26.302,7.558 26.435,7.744L29.468,12.489L28.334,12.489L27.801,11.609L25.209,11.609L24.641,10.73L24.641,10.724Z" style="fill:rgb(254,254,254);fill-rule:nonzero;"/>
    </g>
</svg>
